!!!COM: Monte, Filippo di
!!!CDT:
!!!OTL: Negli anni acerbi tua purpurea rosa
!!!PTL: Il terzodecimo libro delli madrigali a cinque voci
!!!PPP: Venice
!!!PPR: Angelo Gardano
!!!PDT: 1588
!!!RISM: M 3382
!!!rime: 592
!!!AGN: Madrigal
!!!SCT: Trm0592a
!!!SCA: Trm0592a
!!!voices: 5
**kern	**text	**kern	**text	**kern	**text	**kern	**text	**kern	**text
*part5	*part5	*part4	*part4	*part3	*part3	*part2	*part2	*part1	*part1
*staff5	*staff5	*staff4	*staff4	*staff3	*staff3	*staff2	*staff2	*staff1	*staff1
*I"Basso	*	*I"Tenore	*	*I"Quinto	*	*I"Alto	*	*I"Canto	*
*oclefF4	*	*oclefC4	*	*oclefC3	*	*oclefC3	*	*oclefC1	*
*clefF4	*	*clefGv2	*	*clefGv2	*	*clefGv2	*	*clefG2	*
*k[]	*	*k[]	*	*k[]	*	*k[]	*	*k[]	*
*C:	*	*C:	*	*C:	*	*C:	*	*C:	*
*omet(C)	*	*omet(C)	*	*omet(C)	*	*omet(C)	*	*omet(C)	*
*M4/2	*	*M4/2	*	*M4/2	*	*M4/2	*	*M4/2	*
=1	=1	=1	=1	=1	=1	=1	=1	=1	=1
0r	.	0r	.	2f#X	Già	2d	Già	2a	Già
.	.	.	.	4f#i	so-	4d	so-	4a	so-
.	.	.	.	4.f#i	-le-	4.d	-le-	4.a	-le-
.	.	.	.	8f#i	-vi	8d	-vi	8a	-vi
.	.	.	.	4g	pa-	4G	pa-	4b	pa-
.	.	.	.	4e	-rer	4.c	-rer	4g	-rer
.	.	.	.	4a	ver-	.	.	4cc	ver-
.	.	.	.	.	.	8d	ver-	.	.
=2	=2	=2	=2	=2	=2	=2	=2	=2	=2
0r	.	0r	.	4g#X	-mi-	4e	-mi-	4b	-mi-
.	.	.	.	2a	-glia-	4f	-glia	4a	-glia
.	.	.	.	.	.	2e	ro-	2b	ro-
.	.	.	.	4g#X	-ro-	.	.	.	.
.	.	.	.	4a	-sa,	4A	-sa,	4a	-sa,
.	.	.	.	4fnXi	Ch'a	4d	Ch'a	4a	Ch'a
.	.	.	.	4.e	cal-	4d	cal-	4b	cal-
.	.	.	.	.	.	4c	-di	4cc	-di
.	.	.	.	8e	-di	.	.	.	.
=3	=3	=3	=3	=3	=3	=3	=3	=3	=3
0r	.	0r	.	4.d	rag-	4.B	rag-	4.dd	rag-
.	.	.	.	8e	-gi al-	8A	-gi al-	8cc	-gi, al-
.	.	.	.	4gnX	-lo	4G	-lo	4b	-lo
.	.	.	.	4f	spi-	4A	spi-	4a	spi-
.	.	.	.	4e	-rar	4c	-rar	4g	-rar
.	.	.	.	4d	del-	4d	del-	4f	del-
.	.	.	.	2c#X	-l'o-	2A	-l'o-	2e	-l'o-
=4	=4	=4	=4	=4	=4	=4	=4	=4	=4
0r	.	4r	.	4c#i	-ra,	2A	-ra,	4e	-ra,
.	.	4A	Rin-	4c#i	Rin-	.	.	4e	Ri-
.	.	4d	-chiu	4d	-chiu-	2r	.	4f#X	-chiu-
.	.	4c	d'il	4e	-d'il	.	.	4g	-d'il
.	.	4.F	grem-	4.f	grem-	1r	.	4.a	grem-
.	.	8E	-b'e	8g	-b'e	.	.	8g	-b'e
.	.	4D	nel	4a	nel	.	.	4fnXi	nel
.	.	4A	suo	4e	suo	.	.	4cc	suo
=5	=5	=5	=5	=5	=5	=5	=5	=5	=5
0r	.	4B	ver-	4g	ver-	0r	.	4dd	ver-
.	.	4c	-de an-	2g	-de an-	.	.	4cc	-de an-
.	.	2d	-co-	.	.	.	.	2a	-co-
.	.	.	.	4f#X	-co-	.	.	.	.
.	.	4G	-ra	4g	-ra	.	.	4b	-ra
.	.	4.A	Ver-	4.e	Ver-	.	.	4.cc	Ver-
.	.	8G	-gi-	8e	-gi-	.	.	8b	-gi-
.	.	4A	-nel-	4cnXi	-nel-	.	.	4cc	-nel-
=6	=6	=6	=6	=6	=6	=6	=6	=6	=6
0r	.	4G	-la	4d	-la	0r	.	4b	-la
.	.	4F	s'a-	4fnXi	s'a-	.	.	4a	s'a-
.	.	4c	-scon-	4e	-scon-	.	.	4g	-scon-
.	.	4A	-de e	4f	-de e	.	.	4a	-de e
.	.	4B-X	ver-	4d	ver-	.	.	4f	ver-
.	.	4G	-go-	4d	-go-	.	.	4g	-go-
.	.	2A	-gno-	2c#X	-gno-	.	.	2e	-gno-
=7	=7	=7	=7	=7	=7	=7	=7	=7	=7
2r	.	2D	-sa;	4d	-sa;	2r	.	2d	-sa;
.	.	.	.	4d	O	.	.	.	.
4r	.	4r	.	4.f	mi	4r	.	2r	.
4F	O	4A	O	.	.	4c	O	.	.
.	.	.	.	8e	sem-	.	.	.	.
4F	mi	4A	mi	4d	-bra-	4.f	mi	4r	.
4F	sem-	4A	sem-	4cnXi	-vi	.	.	4a	O
.	.	.	.	.	.	8e	sem-	.	.
4F	-bra-	4A	-bra-	4.f	pur,	4d	-bra-	4a	mi
4F	-vi	4A	-vi	.	.	4c	-vi	4a	sem-
.	.	.	.	16eLL	.	.	.	.	.
.	.	.	.	16dJJ	.	.	.	.	.
=8	=8	=8	=8	=8	=8	=8	=8	=8	=8
2.F	pur,	2.A	pur,	2c	.	8fL	pur,	4.a	-bra-
.	.	.	.	.	.	8e	.	.	.
.	.	.	.	.	.	8f	.	.	.
.	.	.	.	.	.	8gJ	.	8b	-vi
.	.	.	.	2r	.	4a	.	4cc	pur,
4G	ché	4d	ché	.	.	4g	ché	4b	ché
4A	mor-	4c#X	mor-	1r	.	4e	mor-	4a	mor-
4D	-tal	4d	-tal	.	.	4f	-tal	2a	-tal
2E	co-	2B	co-	.	.	2e	co-	.	.
.	.	.	.	.	.	.	.	4g#X	co-
=9	=9	=9	=9	=9	=9	=9	=9	=9	=9
4AA	-sa	4A	-sa	0r	.	4c#X	-sa	4a	-sa
4A	Non	4A	Non	.	.	4e	Non	4cc#X	Non
4.G	s'as-	4.B	s'as-	.	.	4.g	s'as-	4.dd	s'as-
8F	-so-	8A	-so-	.	.	8a	-so-	8dd	-so-
4E	-mi-	4B	-mi-	.	.	4.g	-mi-	4ee	-mi-
4E	-glia a	4c#X	-glia a	.	.	.	.	4ee	-glia a
.	.	.	.	.	.	8g	-glia a	.	.
2D	te,	[2d	te,	.	.	2f#X	te,	2a	te,
=10	=10	=10	=10	=10	=10	=10	=10	=10	=10
1G	ce-	2d]	.	1B	ce-	2g	ce-	2r	.
.	.	2G	ce-	.	.	2d	-le-	2g	ce-
2C	-le-	2G	-le-	2c	-le-	2e	-ste au-	4g	-le-
.	.	.	.	.	.	.	.	4e	-ste au-
2D	-ste au-	2F	-ste au-	2A	-ste au-	[2d	-ro-	[2a	-ro-
=11	=11	=11	=11	=11	=11	=11	=11	=11	=11
1AA	-ro-	1E	-ro-	1A	-ro-	2d]	.	4a]	.
.	.	.	.	.	.	.	.	8gL	.
.	.	.	.	.	.	.	.	8fJ	.
.	.	.	.	.	.	2c#i	.	2e	.
4D	-ra,	4D	-ra,	2A	-ra,	2d	-ra,	1f#X	-ra,
4D	Che	4A	Che	.	.	.	.	.	.
4.D	le	4A	le	4r	.	4r	.	.	.
.	.	4B-X	cam-	4d	Che	4d	Che	.	.
8E	cam-	.	.	.	.	.	.	.	.
=12	=12	=12	=12	=12	=12	=12	=12	=12	=12
4F#X	-pa-	4A	-pa-	4a	le	4.d	le	0r	.
4G	-gne im-	4G	-gne im-	4b-X	cam-	.	.	.	.
.	.	.	.	.	.	8e	cam-	.	.
2.D	-per-	4A	-per-	4a	-pa-	4f#X	-pa-	.	.
.	.	4B-X	-l'e i	4g	-gne im-	4g	-gne im-	.	.
.	.	4.A	mon-	4f	-per-	2a	-per-	.	.
4C	-l'e i	.	.	4e	-l'e i	.	.	.	.
.	.	16GLL	.	.	.	.	.	.	.
.	.	16AJJ	.	.	.	.	.	.	.
[2BB-X	mon-	[2B-i	.	[2d	mon-	4g	-l'e i	.	.
.	.	.	.	.	.	[4fnXi	mon-	.	.
=13	=13	=13	=13	=13	=13	=13	=13	=13	=13
4BB-]	.	4B-]	.	4d]	.	4f]	.	1r	.
4FFnXi	-ti in-	4A	-ti in-	4c	-ti in-	2f	-ti in-	.	.
2C	-do-	2G	-do-	2c	-do-	.	.	.	.
.	.	.	.	.	.	4e	-do-	.	.
2FF	-ra	2F	-ra	2A	-ra	2f	-ra	2r	.
[2F	Lu-	[2A	Lu-	4r	.	[2c	Lu-	[2cc	Lu-
.	.	.	.	[4f	Lu-	.	.	.	.
=14	=14	=14	=14	=14	=14	=14	=14	=14	=14
4F]	.	4A]	.	4f]	.	4c]	.	4cc]	.
4F	-ci-	4A	-ci-	4f	-ci-	4c	-ci-	4cc	-ci-
2F	-da in	2A	-da in	2f	-da in	2c	-da in	2cc	-da in
2BB-X	ciel	2B-X	ciel	2f	ciel	1d	ciel	2b-X	ciel
2D	e	2F	se-	2f	se-	.	.	2a	se-
=15	=15	=15	=15	=15	=15	=15	=15	=15	=15
1.C	ru-	1.G	-re-	1.e	-re-	2G	se-	1.cc	-re-
.	.	.	.	.	.	1c	-re-	.	.
2GG	-gia-	2G	-no e	2g	-no e	2d	-no e	2b-X	-no e
=16	=16	=16	=16	=16	=16	=16	=16	=16	=16
2.FF	-do-	2A	ru-	2c	ru-	4f	ru-	2a	ru-
.	.	.	.	.	.	4c	-gia-	.	.
.	.	2F	-gia-	2A	-gia-	1d	-do-	2a	-gia-
4GG	.	.	.	.	.	.	.	.	.
1AA	.	1E	-do-	1A	-do-	.	.	1a	-do-
.	.	.	.	.	.	2c#i	.	.	.
=17	=17	=17	=17	=17	=17	=17	=17	=17	=17
2D	-sa.	2D	-sa.	2A	-sa.	4d	-sa.	4f#X	-sa.
.	.	.	.	.	.	4f	Ma	4a	Ma
2r	.	2r	.	2r	.	4e	nul-	4g	nul-
.	.	.	.	.	.	4d	-la a	4fnXi	-la a
1r	.	2r	.	4r	.	2c#X	te,	2e	te,
.	.	.	.	4a	Ma	.	.	.	.
.	.	4r	.	4g	nul-	4r	.	2r	.
.	.	4d	Ma	4f	-la a	4a	<Ma	.	.
=18	=18	=18	=18	=18	=18	=18	=18	=18	=18
0r	.	4c	nul-	4e	te	4a	nul-	4r	.
.	.	4B	-la a	4d	l'e-	4g	-la a	4dd	<Ma
.	.	4A	te	8eL	-tà	4a	te	4cc	nul-
.	.	.	.	8fJ	.	.	.	.	.
.	.	4G	l'e-	2g	.	4d	l'e-	4b	-la a
.	.	4d	-tà	.	.	2.d	-tà	4a	te
.	.	4D	men	4f	men	.	.	4a	l'e-
.	.	4G	fre-	4e	fre-	.	.	4b	-tà
.	.	4A	-sc'hor	4e	-sc'hor	4cnXi	men	4cc	men
=19	=19	=19	=19	=19	=19	=19	=19	=19	=19
1r	.	2D	to-	4d	to-	4f	fre-	4b	fre-
.	.	.	.	4c	.	4f	-sc'hor	2a	-sc'hor
.	.	2E	-glie;	2B	.	2e	to-	.	.
.	.	.	.	.	.	.	.	4g#X	to-
2r	.	2r	.	2A	-glie;	2c#X	-glie;	1a	-glie;
4F	Né	4A	Né	4c	Né	4f	Né	.	.
4F	bel-	4A	bel-	4c	bel-	4f	bel-	.	.
=20	=20	=20	=20	=20	=20	=20	=20	=20	=20
2F	-tà	2A	-tà	2c	-tà	2f	-tà	0r	.
4C	gio-	4G	gio-	4c	gio-	4e	gio-	.	.
4D	-vi-	4F	-vi-	4A	-vi-	4d	-vi-	.	.
4E	-net-	2.c	-net-	4G	-net-	4g	-net-	.	.
4F	-ta in	.	.	4A	-ta in	4f	-ta in	.	.
4C	man-	.	.	4G	man-	4e	man-	.	.
4D	-to a-	4A	-ta in	4F	-to a-	[4d	-to a-	.	.
=21	=21	=21	=21	=21	=21	=21	=21	=21	=21
2GG	-dor-	4G	man-	2B-X	-dor-	4d]	.	2r	.
.	.	4F	-to a-	.	.	2d	-dor-	.	.
2AA	-no	2E	-dor-	2A	-no	.	.	4r	.
.	.	.	.	.	.	4c#i	.	4.a	Vin-
1r	.	2D	-no	2r	.	2d	-no	.	.
.	.	.	.	.	.	.	.	8a	-ce
.	.	.	.	.	.	.	.	4a	la
.	.	4r	.	4r	.	4r	.	4g	tua
.	.	[4A	Vin-	[4e	Vin-	[4cnXi	Vin-	4c	ne-
=22	=22	=22	=22	=22	=22	=22	=22	=22	=22
0r	.	8AL]	.	8eL]	.	8cL]	.	2cc	-glet-
.	.	8AJ	-ce	8eJ	-ce	8cJ	-ce	.	.
.	.	4A	la	4e	la	4c	la	.	.
.	.	4G	tua	4g	tua	4d	tua	4b	-ta o
.	.	4F	ne-	4a	ne-	4f	ne-	2cc	la
.	.	4c	-glet-	4.g	-glet-	4e	-glet-	.	.
.	.	4G	-ta o	.	.	4d	-ta o	2b	pa-
.	.	.	.	8g	-ta o	.	.	.	.
.	.	4A	la	4f	la	4c	la	.	.
.	.	4F	pa-	4d	pa-	4A	pa-	[4a	-reg-
=23	=23	=23	=23	=23	=23	=23	=23	=23	=23
2r	.	2E	-reg-	2e	-reg-	2B	-reg-	4a]	.
.	.	.	.	.	.	.	.	4g#i	.
4r	.	2A	-gia.	2c#X	-gia.	4A	-gia.	2a	-gia.
4A	Co-	.	.	.	.	4A	Co-	.	.
4A	-sì	1r	.	4r	.	4c	-sì	1r	.
4A	più	.	.	4e	Co-	4c	più	.	.
2G	va-	.	.	4e	-sì	2B	va-	.	.
.	.	.	.	4e	più	.	.	.	.
=24	=24	=24	=24	=24	=24	=24	=24	=24	=24
4F#X	-go	0r	.	2d	va-	4A	-go	0r	.
2G	l'o-	.	.	.	.	2B	l'o-	.	.
.	.	.	.	4e	-go	.	.	.	.
4A	-do-	.	.	2f	l'o-	4c	-do-	.	.
2.B-X	-ra-	.	.	.	.	8dL	-ra-	.	.
.	.	.	.	.	.	8e	.	.	.
.	.	.	.	4d	-do-	8f	.	.	.
.	.	.	.	.	.	8eJ	.	.	.
.	.	.	.	[2g	-ra-	4d	.	.	.
4G	-te	.	.	.	.	[4e	-te	.	.
=25	=25	=25	=25	=25	=25	=25	=25	=25	=25
1A	fo-	1r	.	4g]	.	4e]	.	1r	.
.	.	.	.	4f	-te	2d	fo-	.	.
.	.	.	.	2e	fo-	.	.	.	.
.	.	.	.	.	.	4c#i	.	.	.
2D	-glie	4r	.	2f#X	-glie	2d	-glie	4r	.
.	.	4A	Il	.	.	.	.	4a	Il
2r	.	4B	fior	2r	.	2r	.	4g	fior
.	.	4d	di-	.	.	.	.	4f	di-
=26	=26	=26	=26	=26	=26	=26	=26	=26	=26
0r	.	2c#X	-spie-	4r	.	4r	.	2e	-spie-
.	.	.	.	4a	Il	4A	Il	.	.
.	.	2d	-ga e'l	4g	fior	4B	fior	2d	-ga
.	.	.	.	4fnXi	di-	4d	di-	.	.
.	.	2A	so-	2e	-spie-	2c#X	-spie-	2r	.
.	.	2F#X	-le a	2a	-ga e'l	2d	-ga e'l	4r	.
.	.	.	.	.	.	.	.	4a	e'l
=27	=27	=27	=27	=27	=27	=27	=27	=27	=27
1r	.	2.G	mez-	4g	so-	4.B	so-	4.dd	so-
.	.	.	.	4d	-le a	.	.	.	.
.	.	.	.	.	.	8cnXi	-le a	8cc	-le a
.	.	.	.	4g	mez-	4d	mez-	4b	mez-
.	.	4CnX	-zo	4g	-zo	4e	-zo	4cc	-zo
2r	.	2D	gior-	2f#X	gior-	2d	gior-	2a	gior-
4r	.	4G	-no	4g	-no	4d	-no	4b	-no
4C	Via	4G	Vi	4e	Via	4c	Via	4cc	Via
=28	=28	=28	=28	=28	=28	=28	=28	=28	=28
4.C	pìu	4.G	più	4.e	più	4.c	più	4.g	più
8C	che	8G	che	8e	che	8c	che	8g	che
4C	nel	4G	nel	4e	nel	4c	nel	4g	nel
4C	mat-	4G	mat-	4e	mat-	4G	mat-	4cc	mat-
2GG	-tin	1G	-tin	2d	-tin	4g	-tin	2b	-tin
.	.	.	.	.	.	2g	ar-	.	.
2C	ar-	.	.	2e	ar-	.	.	2cc	ar-
.	.	.	.	.	.	[4c	-de e	.	.
=29	=29	=29	=29	=29	=29	=29	=29	=29	=29
2FF	-de e	4r	.	4.f	-de e	4c]	.	2a	-de e
.	.	2A	ar-	.	.	2d	fiam-	.	.
.	.	.	.	8e	.	.	.	.	.
2GG	fiam-	.	.	4d	.	.	.	2b-X	fiam-
.	.	2G	-de e	4g	fiam-	4.e	-meg-	.	.
1AA	-meg-	.	.	8cL	-meg-	.	.	1a	-meg-
.	.	.	.	8B	.	8d	.	.	.
.	.	4F	fiam-	8A	.	2d	.	.	.
.	.	.	.	8GJ	.	.	.	.	.
.	.	2E	-meg-	2A	.	.	.	.	.
.	.	.	.	.	.	4c#i	.	.	.
=30	=30	=30	=30	=30	=30	=30	=30	=30	=30
0Dl	-gia.	0Dl	-gia.	0Al	-gia.	0dl	-gia.	0f#Xl	-gia.
==	==	==	==	==	==	==	==	==	==
*-	*-	*-	*-	*-	*-	*-	*-	*-	*-
!!!system-decoration: [(s1)(s2)(s3)(s4)(s5)]
!!!RDF**kern: i = editorial accidental
!!!RDF**kern: l = terminal long
!!!ENC: Emiliano Ricciardi
!!!END: 2019/01/01
!!!EED: Ricciardi, Emiliano
!!!EEV: 2019/01/14
!!!YEC: Copyright 2018 Emiliano Ricciardi, All Rights Reserved
!!!ONB: Translated from MusicXML on 2019/01/14 and edited by Craig Stuart Sapp
